svg/sidekiq.svg

<svg viewBox="0 0 20 20" xmlns="http://www.w3.org/2000/svg">
<rect width="100%" height="100%" fill="#B1003E"/>
<path d="M4.7705 3.19618C3.94599 3.23771 3.40828 3.4009 3.15736 3.68574C2.90644 3.97059 2.88721 4.36946 3.09966 4.88236C3.24761 5.12715 3.37583 5.30629 3.48432 5.41978C3.59281 5.53327 3.75945 5.65476 3.98424 5.78422L3.68857 5.95278L3.48432 6.57608L2.98687 7.48492L2.15983 9.51991L2 10.0062C2.10776 10.6389 2.2024 10.9914 2.28394 11.0636C2.36547 11.1359 2.51482 11.1656 2.732 11.1527C2.94984 11.3958 3.09163 11.4826 3.15736 11.413L3.1593 11.4109C3.18551 11.3832 3.22444 11.3421 3.20583 11.211C3.20239 11.1868 3.18667 11.1533 3.16957 11.1169C3.14425 11.063 3.11589 11.0026 3.11974 10.9559C3.12239 10.9237 3.13687 10.8898 3.15439 10.8489C3.17775 10.7942 3.20652 10.727 3.21986 10.6339C3.22989 10.564 3.22989 10.4291 3.21986 10.2294L4.53042 8.88758L5.28422 9.04659L6.28051 9.22345L6.51645 9.28718C6.49961 9.32682 6.49156 9.35139 6.49436 9.35762C6.45361 9.5588 6.47783 9.77252 6.49436 9.8879C6.58357 10.5103 5.97803 10.6689 5.97803 10.6689L6.2973 10.9442C6.93918 10.827 6.93918 10.0098 6.93918 10.0098C6.90899 9.8967 6.8792 9.52679 6.8946 9.42459C6.89607 9.42601 7.27061 8.98224 7.59344 8.29549C7.74043 7.9828 7.88029 7.60027 7.98468 7.31474C7.99804 7.27821 8.01081 7.24327 8.02295 7.21026C8.12636 6.92902 8.14614 6.74779 8.1303 6.69678C8.1303 6.70607 8.07591 6.68745 7.99755 6.66062C7.93015 6.63754 7.84501 6.6084 7.76149 6.58571C7.76177 6.58251 7.76205 6.57929 7.76231 6.57608L7.43831 6.27822C8.2139 5.98027 8.65456 5.7627 8.76029 5.62553C8.91889 5.41978 9.20525 4.79883 9.20525 4.56378C9.20525 4.40707 9.22845 3.86331 9.27485 2.93249C8.82124 2.98941 8.55653 2.98941 8.48074 2.93249C8.36705 2.84711 8.26027 2.50641 8.26027 2.21989C8.26027 2.02888 8.20127 1.77105 8.08327 1.4464L7.76231 1.35803C7.71395 1.11934 7.66289 1 7.60913 1C7.55537 1 7.49843 1.05696 7.43831 1.17087C7.37008 1.4322 7.33597 1.5947 7.33597 1.65836C7.33597 1.67567 7.33372 1.69876 7.33105 1.72611C7.31901 1.84961 7.29847 2.06017 7.43831 2.21989C7.55219 2.34996 7.68606 2.58749 7.83991 2.93249C7.74401 3.28511 7.74401 3.5095 7.83991 3.60565C7.94033 3.70633 7.90055 3.82953 7.86737 3.93228C7.85302 3.97673 7.83991 4.01734 7.83991 4.05066C7.83991 4.12422 7.81404 4.29525 7.76231 4.56378C6.88 4.71649 6.37475 4.76735 6.24657 4.71634C6.1184 4.66533 5.91535 4.72067 5.63743 4.88236L5.28422 5.22105C5.34503 4.95994 5.34503 4.76829 5.28422 4.6461C5.19301 4.4628 5.14232 4.3472 5.14232 4.18067C5.14232 4.15055 5.12407 4.1033 5.10352 4.05007C5.07702 3.98141 5.04666 3.90279 5.04666 3.83815C5.04666 3.7915 5.0596 3.714 5.08546 3.60565L4.83392 3.36761C4.89304 3.36482 4.92626 3.34817 4.93359 3.31768C4.94092 3.28718 4.88656 3.24669 4.7705 3.19618Z" fill="white"/>
<path d="M8.54726 7.01565C8.26472 7.84158 8.0604 8.38418 7.93432 8.64344C7.80824 8.90271 7.58277 9.25724 7.25791 9.70705C7.52643 10.0135 7.66069 10.2242 7.66069 10.3391C7.66069 10.5115 7.63099 11.4883 7.53748 11.9458C7.47514 12.2508 7.41178 13.78 7.34741 16.5334C7.34746 17.0109 7.29954 17.3064 7.20365 17.4196C7.05983 17.5896 6.89281 18.0471 6.89281 18.1715C6.89281 18.296 6.38898 18.7396 6.38898 18.7396C6.38898 18.7396 6.52928 18.9999 6.65079 18.9999C6.77231 18.9999 7.31317 18.6607 7.53748 18.3781C7.67975 18.1988 7.79592 18.1447 7.89515 18.0985C7.95237 18.0718 8.00397 18.0478 8.05169 18.0039C8.18216 17.8839 8.41854 17.5608 8.30035 17.4196C8.22155 17.3255 8.18216 17.1207 8.18216 16.8052C8.36113 16.6993 8.49691 16.6463 8.58949 16.6463C8.65779 16.6463 8.66518 16.5264 8.67651 16.3427C8.68822 16.1528 8.70413 15.8946 8.79584 15.6301C8.91614 15.283 9.20245 13.4754 9.6548 10.2073C9.93223 9.39076 10.1201 8.94318 10.2183 8.86462C10.3165 8.78605 10.7084 8.4535 11.394 7.86699C12.4827 7.19331 13.0899 6.80194 13.2155 6.69285C13.2881 6.62987 13.6056 6.5135 13.9832 6.37512C14.5866 6.154 15.3433 5.87669 15.4983 5.67135C15.6662 5.4488 16.0229 5.19117 16.5683 4.89845V4.69081C16.9123 4.57273 17.1377 4.51369 17.2445 4.51369C17.2787 4.51369 17.3155 4.51818 17.3532 4.52279C17.4918 4.53973 17.6435 4.55827 17.7335 4.36112C17.7829 4.25269 17.797 4.13893 17.81 4.0341C17.827 3.89649 17.8422 3.77426 17.9329 3.69963C18.0927 3.56815 18.3575 3.33687 18.4383 3.19957C18.464 3.15586 18.499 3.11614 18.532 3.07871C18.6026 2.99856 18.6641 2.92889 18.6053 2.85291C18.5191 2.74146 18.064 2.79554 17.9984 2.9008C17.9633 2.95726 17.8478 3.03828 17.7117 3.13374C17.5941 3.21626 17.4611 3.30957 17.3513 3.40715C17.1934 3.54745 16.863 3.71942 16.3601 3.92305C16.044 3.64003 15.8361 3.52185 15.7366 3.56852C15.7094 3.58125 15.6512 3.61054 15.571 3.65084C15.2105 3.83211 14.4066 4.23631 13.9916 4.36112C13.7419 4.43619 13.1905 4.77191 12.6398 5.1072C12.0713 5.45333 11.5036 5.799 11.2694 5.85696C10.8083 5.97106 10.4199 6.10264 10.2183 6.25479C10.0773 6.36121 9.91175 6.36304 9.72725 6.36507C9.64797 6.36594 9.56519 6.36685 9.47935 6.37612C9.41967 6.38256 9.34497 6.42851 9.24798 6.48816C9.1108 6.57253 8.92904 6.68432 8.68219 6.75049C8.62822 6.80222 8.58324 6.89061 8.54726 7.01565Z" fill="white"/>
</svg>

<svg xmlns="http://www.w3.org/2000/svg" viewBox="0 0 20 20">
  <rect width="100%" height="100%" fill="#B1003E"/>
  <path fill="#fff" d="M4.77 3.2c-.82.04-1.36.2-1.61.49-.25.28-.27.68-.06 1.2.15.24.28.42.38.53.11.11.28.23.5.36l-.3.17-.2.63-.5.9-.82 2.04-.16.49c.1.63.2.98.28 1.05.09.08.23.1.45.1.22.24.36.32.43.25.03-.03.06-.07.05-.2a.4.4 0 0 0-.04-.1c-.03-.05-.05-.1-.05-.15 0-.04.02-.07.03-.11.03-.06.06-.12.07-.22v-.4l1.31-1.34.75.16 1 .17.24.07-.03.07c-.04.2-.01.41 0 .53.1.62-.51.78-.51.78l.32.27c.64-.11.64-.93.64-.93a2.58 2.58 0 0 1-.05-.59s.38-.44.7-1.12c.15-.32.29-.7.4-.99l.03-.1c.1-.28.13-.46.11-.51L8 6.66a3.89 3.89 0 0 0-.24-.08l-.32-.3c.77-.3 1.21-.52 1.32-.65.16-.21.45-.83.45-1.07l.06-1.63c-.45.06-.71.06-.79 0-.11-.08-.22-.42-.22-.71 0-.2-.06-.45-.18-.77l-.32-.1c-.05-.23-.1-.35-.15-.35-.05 0-.11.06-.17.17a2.86 2.86 0 0 0-.1.56c-.02.12-.04.33.1.49.11.13.25.37.4.71-.1.36-.1.58 0 .68.1.1.06.22.03.32a.43.43 0 0 0-.03.12c0 .07-.03.25-.08.51-.88.16-1.39.2-1.51.16-.13-.05-.33 0-.61.16l-.36.34c.07-.26.07-.45 0-.57a.97.97 0 0 1-.14-.47l-.04-.13c-.02-.07-.05-.15-.05-.21 0-.05.01-.13.04-.23l-.26-.24c.06 0 .1-.02.1-.05.01-.03-.04-.07-.16-.12ZM8.55 7.02c-.29.82-.49 1.36-.62 1.62a7.9 7.9 0 0 1-.67 1.07c.27.3.4.51.4.63 0 .17-.03 1.15-.12 1.6-.06.31-.13 1.84-.2 4.6 0 .47-.04.77-.14.88-.14.17-.3.63-.3.75 0 .13-.51.57-.51.57s.14.26.26.26.66-.34.89-.62a.86.86 0 0 1 .36-.28c.05-.03.1-.05.15-.1.13-.12.37-.44.25-.58-.08-.1-.12-.3-.12-.61.18-.11.32-.16.4-.16.08 0 .09-.12.1-.3 0-.2.02-.46.12-.72.12-.35.4-2.15.85-5.42.28-.82.47-1.27.57-1.35.1-.07.49-.4 1.17-1a28.2 28.2 0 0 0 1.83-1.17c.07-.06.39-.18.76-.31.6-.23 1.36-.5 1.52-.7.17-.23.52-.49 1.07-.78v-.2c.34-.13.57-.19.67-.19l.11.01c.14.02.3.04.38-.16.05-.1.07-.22.08-.33.02-.13.03-.26.12-.33a2.83 2.83 0 0 0 .6-.62c.07-.08.13-.15.08-.23-.1-.1-.55-.05-.61.05a1.3 1.3 0 0 1-.29.23c-.12.09-.25.18-.36.28-.16.14-.49.3-.99.51-.32-.28-.52-.4-.62-.35l-.17.08c-.36.18-1.16.59-1.58.71-.25.08-.8.41-1.35.75-.57.34-1.14.69-1.37.75-.46.11-.85.24-1.05.4-.14.1-.3.1-.5.1-.07 0-.15 0-.24.02-.06 0-.14.05-.23.1-.14.1-.32.2-.57.27a.6.6 0 0 0-.13.27Z"/>
</svg>
